browser/branding/official/content/firefox-wordmark.svg

<?xml version="1.0" encoding="UTF-8"?>
<svg xmlns="http://www.w3.org/2000/svg" xmlns:xlink="http://www.w3.org/1999/xlink" width="232" height="42" viewBox="0 0 232 42" version="1.1">
<defs>
<linearGradient id="linear0" gradientUnits="userSpaceOnUse" x1="1623.99" y1="-45.5674" x2="1623.99" y2="777.37" gradientTransform="matrix(0.0711656,0,0,0.0711864,0,0)">
<stop offset="0" style="stop-color:rgb(90.588235%,32.156863%,24.705882%);stop-opacity:1;"/>
<stop offset="1" style="stop-color:rgb(67.843137%,6.666667%,5.490196%);stop-opacity:1;"/>
</linearGradient>
</defs>
<g id="surface1">
<path style=" stroke:none;fill-rule:nonzero;fill:url(#linear0);" d="M 25.976562 20.753906 C 25.976562 19.496094 25.882812 18.457031 25.6875 17.636719 C 25.515625 16.796875 25.085938 16.132812 24.40625 15.644531 C 23.726562 15.140625 22.714844 14.789062 21.371094 14.597656 C 20.042969 14.386719 18.226562 14.285156 15.921875 14.285156 C 13.671875 14.285156 11.839844 14.484375 10.425781 14.886719 C 9.011719 15.269531 7.902344 15.820312 7.101562 16.535156 C 6.296875 17.25 5.746094 18.105469 5.453125 19.101562 C 5.171875 20.097656 5.03125 21.207031 5.03125 22.429688 L 5.03125 41.101562 L 0.00390625 41.101562 L 0.00390625 10.933594 L 5.03125 10.933594 L 5.03125 15.722656 C 5.207031 15.183594 5.53125 14.589844 6 13.945312 C 6.472656 13.28125 7.1875 12.667969 8.148438 12.109375 C 9.109375 11.535156 10.347656 11.054688 11.867188 10.667969 C 13.402344 10.285156 15.3125 10.09375 17.597656 10.09375 C 20.21875 10.09375 22.347656 10.328125 23.988281 10.800781 C 25.628906 11.253906 26.902344 11.9375 27.808594 12.84375 C 28.734375 13.734375 29.355469 14.84375 29.667969 16.167969 C 30 17.496094 30.164062 19.023438 30.164062 20.753906 Z M 68.703125 18.472656 C 69.542969 18.472656 70.273438 18.402344 70.902344 18.265625 C 71.53125 18.125 72.046875 17.855469 72.449219 17.453125 C 72.867188 17.035156 73.179688 16.441406 73.390625 15.671875 C 73.601562 14.902344 73.703125 13.890625 73.703125 12.632812 C 73.703125 11.238281 73.601562 10.058594 73.390625 9.097656 C 73.179688 8.136719 72.832031 7.34375 72.34375 6.714844 C 71.855469 6.085938 71.191406 5.605469 70.355469 5.273438 C 69.535156 4.941406 68.503906 4.699219 67.265625 4.542969 C 66.023438 4.382812 64.558594 4.296875 62.867188 4.28125 C 61.171875 4.246094 59.210938 4.226562 56.976562 4.226562 C 53.902344 4.226562 51.3125 4.269531 49.199219 4.359375 C 47.105469 4.429688 45.367188 4.578125 43.988281 4.804688 C 42.628906 5.011719 41.582031 5.308594 40.847656 5.695312 C 40.113281 6.078125 39.574219 6.585938 39.222656 7.214844 C 38.894531 7.824219 38.691406 8.574219 38.621094 9.464844 C 38.570312 10.355469 38.542969 11.402344 38.542969 12.609375 L 33.515625 12.609375 C 33.515625 10.496094 33.742188 8.714844 34.199219 7.265625 C 34.667969 5.816406 35.351562 4.628906 36.238281 3.703125 C 37.148438 2.761719 38.265625 2.046875 39.589844 1.554688 C 40.917969 1.050781 42.445312 0.691406 44.171875 0.484375 C 45.917969 0.253906 47.855469 0.125 49.984375 0.0898438 C 52.132812 0.0546875 54.460938 0.0390625 56.976562 0.0390625 C 59.488281 0.0390625 61.765625 0.0820312 63.808594 0.167969 C 65.867188 0.238281 67.699219 0.414062 69.304688 0.691406 C 70.929688 0.972656 72.335938 1.382812 73.519531 1.921875 C 74.707031 2.464844 75.6875 3.207031 76.453125 4.148438 C 77.238281 5.074219 77.816406 6.226562 78.183594 7.605469 C 78.566406 8.984375 78.757812 10.652344 78.757812 12.609375 C 78.757812 13.863281 78.671875 14.929688 78.496094 15.804688 C 78.339844 16.675781 78.085938 17.417969 77.738281 18.027344 C 77.40625 18.621094 76.976562 19.121094 76.453125 19.523438 C 75.929688 19.90625 75.300781 20.253906 74.570312 20.570312 C 75.300781 20.882812 75.929688 21.285156 76.453125 21.773438 C 76.976562 22.261719 77.40625 22.863281 77.738281 23.582031 C 78.085938 24.277344 78.339844 25.109375 78.496094 26.070312 C 78.671875 27.011719 78.757812 28.113281 78.757812 29.367188 C 78.757812 31.324219 78.566406 32.992188 78.183594 34.371094 C 77.816406 35.75 77.238281 36.910156 76.453125 37.855469 C 75.6875 38.777344 74.707031 39.511719 73.519531 40.054688 C 72.335938 40.59375 70.929688 41.003906 69.304688 41.285156 C 67.699219 41.5625 65.867188 41.738281 63.808594 41.808594 C 61.765625 41.894531 59.488281 41.9375 56.976562 41.9375 C 54.460938 41.9375 52.132812 41.921875 49.984375 41.886719 C 47.855469 41.851562 45.917969 41.710938 44.171875 41.46875 C 42.445312 41.222656 40.917969 40.839844 39.589844 40.316406 C 38.265625 39.773438 37.148438 39.003906 36.238281 38.011719 C 35.351562 37.015625 34.667969 35.75 34.199219 34.214844 C 33.742188 32.675781 33.515625 30.78125 33.515625 28.53125 L 38.542969 28.53125 C 38.542969 29.855469 38.578125 31.007812 38.648438 31.988281 C 38.71875 32.949219 38.917969 33.769531 39.25 34.449219 C 39.582031 35.128906 40.113281 35.6875 40.847656 36.125 C 41.582031 36.542969 42.628906 36.875 43.988281 37.121094 C 45.367188 37.363281 47.105469 37.53125 49.199219 37.617188 C 51.3125 37.707031 53.902344 37.75 56.976562 37.75 C 59.210938 37.75 61.171875 37.738281 62.867188 37.722656 C 64.558594 37.6875 66.023438 37.589844 67.265625 37.433594 C 68.503906 37.277344 69.535156 37.03125 70.355469 36.703125 C 71.191406 36.371094 71.855469 35.890625 72.34375 35.261719 C 72.832031 34.632812 73.179688 33.839844 73.390625 32.878906 C 73.601562 31.917969 73.703125 30.738281 73.703125 29.34375 C 73.703125 27.875 73.601562 26.707031 73.390625 25.832031 C 73.179688 24.941406 72.867188 24.261719 72.449219 23.789062 C 72.046875 23.320312 71.53125 23.011719 70.902344 22.875 C 70.273438 22.734375 69.542969 22.664062 68.703125 22.664062 L 50.273438 22.664062 L 50.273438 18.472656 Z M 103.054688 41.675781 C 99.703125 41.675781 96.855469 41.433594 94.519531 40.945312 C 92.179688 40.453125 90.277344 39.617188 88.8125 38.429688 C 87.34375 37.242188 86.28125 35.644531 85.617188 33.636719 C 84.953125 31.628906 84.621094 29.105469 84.621094 26.070312 C 84.621094 22.925781 84.953125 20.324219 85.617188 18.265625 C 86.28125 16.203125 87.34375 14.570312 88.8125 13.367188 C 90.277344 12.164062 92.179688 11.316406 94.519531 10.828125 C 96.855469 10.339844 99.703125 10.09375 103.054688 10.09375 C 105.425781 10.09375 107.417969 10.214844 109.023438 10.460938 C 110.628906 10.703125 111.9375 11.011719 112.949219 11.375 C 113.980469 11.742188 114.757812 12.144531 115.28125 12.582031 C 115.820312 13 116.214844 13.394531 116.457031 13.761719 L 116.457031 0.875 L 121.484375 0.875 L 121.484375 41.101562 L 116.457031 41.101562 L 116.457031 36.621094 C 116.457031 36.621094 116.039062 37.121094 115.203125 38.117188 C 114.46875 38.832031 113.65625 39.40625 112.765625 39.84375 C 111.875 40.28125 110.628906 40.699219 109.023438 41.101562 C 107.417969 41.484375 105.425781 41.675781 103.054688 41.675781 Z M 103.054688 37.75 C 104.730469 37.75 106.222656 37.714844 107.53125 37.644531 C 108.839844 37.558594 109.992188 37.382812 110.988281 37.121094 C 111.980469 36.859375 112.820312 36.472656 113.5 35.96875 C 114.199219 35.445312 114.765625 34.753906 115.203125 33.898438 C 115.636719 33.042969 115.953125 31.988281 116.144531 30.730469 C 116.355469 29.457031 116.457031 27.929688 116.457031 26.148438 C 116.457031 24.296875 116.355469 22.726562 116.144531 21.433594 C 115.953125 20.125 115.636719 19.03125 115.203125 18.160156 C 114.765625 17.269531 114.199219 16.570312 113.5 16.066406 C 112.820312 15.558594 111.980469 15.175781 110.988281 14.914062 C 109.992188 14.632812 108.839844 14.457031 107.53125 14.386719 C 106.222656 14.320312 104.730469 14.285156 103.054688 14.285156 C 101.097656 14.285156 99.40625 14.34375 97.972656 14.46875 C 96.558594 14.589844 95.355469 14.808594 94.363281 15.121094 C 93.367188 15.4375 92.554688 15.871094 91.925781 16.429688 C 91.316406 16.988281 90.835938 17.707031 90.488281 18.578125 C 90.15625 19.453125 89.929688 20.507812 89.804688 21.746094 C 89.703125 22.96875 89.648438 24.410156 89.648438 26.070312 C 89.648438 27.710938 89.703125 29.140625 89.804688 30.363281 C 89.929688 31.566406 90.15625 32.605469 90.488281 33.480469 C 90.835938 34.335938 91.316406 35.042969 91.925781 35.601562 C 92.554688 36.160156 93.367188 36.597656 94.363281 36.910156 C 95.355469 37.226562 96.558594 37.441406 97.972656 37.566406 C 99.40625 37.6875 101.097656 37.75 103.054688 37.75 Z M 138.242188 14.753906 L 138.242188 41.101562 L 133.214844 41.101562 L 133.214844 14.753906 L 128.1875 14.753906 L 128.1875 10.933594 L 133.214844 10.933594 L 133.214844 10.667969 C 133.214844 8.628906 133.441406 6.925781 133.894531 5.5625 C 134.347656 4.203125 135.097656 3.109375 136.144531 2.289062 C 137.191406 1.46875 138.574219 0.894531 140.28125 0.5625 C 142.011719 0.210938 144.132812 0.0390625 146.644531 0.0390625 L 152.484375 0.0390625 L 152.484375 4.226562 L 146.617188 4.226562 C 145.03125 4.226562 143.703125 4.261719 142.640625 4.332031 C 141.574219 4.402344 140.710938 4.636719 140.046875 5.039062 C 139.402344 5.441406 138.9375 6.078125 138.660156 6.949219 C 138.378906 7.824219 138.242188 9.0625 138.242188 10.667969 L 138.242188 10.933594 L 152.484375 10.933594 L 152.484375 14.753906 Z M 154.996094 25.808594 C 154.996094 22.714844 155.328125 20.160156 155.992188 18.132812 C 156.652344 16.109375 157.71875 14.503906 159.183594 13.316406 C 160.652344 12.128906 162.554688 11.296875 164.894531 10.828125 C 167.230469 10.339844 170.078125 10.09375 173.429688 10.09375 C 176.777344 10.09375 179.625 10.339844 181.960938 10.828125 C 184.300781 11.296875 186.203125 12.128906 187.671875 13.316406 C 189.136719 14.503906 190.199219 16.109375 190.863281 18.132812 C 191.527344 20.160156 191.859375 22.714844 191.859375 25.808594 C 191.859375 28.898438 191.527344 31.464844 190.863281 33.507812 C 190.199219 35.550781 189.136719 37.171875 187.671875 38.378906 C 186.203125 39.582031 184.300781 40.4375 181.960938 40.945312 C 179.625 41.433594 176.777344 41.675781 173.429688 41.675781 C 170.078125 41.675781 167.230469 41.433594 164.894531 40.945312 C 162.554688 40.4375 160.652344 39.582031 159.183594 38.378906 C 157.71875 37.171875 156.652344 35.550781 155.992188 33.507812 C 155.328125 31.464844 154.996094 28.898438 154.996094 25.808594 Z M 160.023438 25.808594 C 160.023438 27.484375 160.085938 28.941406 160.207031 30.179688 C 160.328125 31.417969 160.554688 32.484375 160.886719 33.375 C 161.238281 34.265625 161.714844 34.992188 162.328125 35.550781 C 162.9375 36.109375 163.742188 36.554688 164.734375 36.882812 C 165.730469 37.214844 166.933594 37.441406 168.347656 37.566406 C 169.78125 37.6875 171.472656 37.75 173.429688 37.75 C 175.101562 37.75 176.59375 37.714844 177.90625 37.644531 C 179.230469 37.558594 180.382812 37.375 181.359375 37.09375 C 182.355469 36.816406 183.203125 36.421875 183.898438 35.914062 C 184.597656 35.390625 185.15625 34.683594 185.574219 33.792969 C 186.011719 32.902344 186.324219 31.8125 186.519531 30.519531 C 186.726562 29.210938 186.832031 27.640625 186.832031 25.808594 C 186.832031 24.007812 186.726562 22.480469 186.519531 21.222656 C 186.324219 19.949219 186.011719 18.882812 185.574219 18.027344 C 185.15625 17.171875 184.597656 16.5 183.898438 16.011719 C 183.203125 15.507812 182.355469 15.128906 181.359375 14.886719 C 180.382812 14.625 179.230469 14.457031 177.90625 14.386719 C 176.59375 14.320312 175.101562 14.285156 173.429688 14.285156 C 171.75 14.285156 170.25 14.320312 168.925781 14.386719 C 167.617188 14.457031 166.464844 14.625 165.46875 14.886719 C 164.492188 15.128906 163.652344 15.507812 162.957031 16.011719 C 162.257812 16.5 161.691406 17.171875 161.253906 18.027344 C 160.835938 18.882812 160.519531 19.949219 160.3125 21.222656 C 160.121094 22.480469 160.023438 24.007812 160.023438 25.808594 Z M 225.265625 41.101562 L 213.171875 28.476562 L 201.074219 41.101562 L 194.371094 41.101562 L 209.820312 25.753906 L 195.105469 10.933594 L 201.808594 10.933594 L 213.300781 22.585938 L 224.53125 10.933594 L 231.234375 10.933594 L 216.519531 25.726562 L 231.96875 41.101562 Z M 225.265625 41.101562 "/>
</g>
</svg>

<svg xmlns="http://www.w3.org/2000/svg" width="232" height="42"><defs><linearGradient id="A" gradientUnits="userSpaceOnUse" x1="115.573" y1="-3.244" x2="115.573" y2="55.338"><stop offset="0" stop-color="rgb(90.588235%,32.156863%,24.705882%)"/><stop offset="1" stop-color="rgb(67.843137%,6.666667%,5.490196%)"/></linearGradient></defs><path d="M25.977 20.754c0-1.258-.094-2.297-.289-3.117-.172-.84-.602-1.504-1.281-1.992-.68-.504-1.691-.855-3.035-1.047-1.328-.211-3.145-.312-5.449-.312-2.25 0-4.082.199-5.496.602-1.414.383-2.523.934-3.324 1.648s-1.355 1.57-1.648 2.566c-.281.996-.422 2.105-.422 3.328v18.672H.004V10.934h5.027v4.789c.176-.539.5-1.133.969-1.777.473-.664 1.188-1.277 2.148-1.836.961-.574 2.199-1.055 3.719-1.441 1.535-.383 3.445-.574 5.73-.574 2.621 0 4.75.234 6.391.707 1.641.453 2.914 1.137 3.82 2.043.926.891 1.547 2 1.859 3.324.332 1.328.496 2.855.496 4.586zm42.727-2.281c.84 0 1.57-.07 2.199-.207s1.145-.41 1.547-.812c.418-.418.73-1.012.941-1.781s.313-1.781.313-3.039c0-1.395-.102-2.574-.312-3.535s-.559-1.754-1.047-2.383-1.152-1.109-1.988-1.441c-.82-.332-1.852-.574-3.09-.73s-2.707-.246-4.398-.262l-5.891-.055-7.777.133c-2.094.07-3.832.219-5.211.445-1.359.207-2.406.504-3.141.891s-1.273.891-1.625 1.52c-.328.609-.531 1.359-.602 2.25l-.078 3.145h-5.027c0-2.113.227-3.895.684-5.344.469-1.449 1.152-2.637 2.039-3.562.91-.941 2.027-1.656 3.352-2.148 1.328-.504 2.855-.863 4.582-1.07 1.746-.23 3.684-.359 5.813-.395l6.992-.051 6.832.129c2.059.07 3.891.246 5.496.523 1.625.281 3.031.691 4.215 1.23s2.168 1.285 2.934 2.227c.785.926 1.363 2.078 1.73 3.457.383 1.379.574 3.047.574 5.004 0 1.254-.086 2.32-.262 3.195-.156.871-.41 1.613-.758 2.223-.332.594-.762 1.094-1.285 1.496-.523.383-1.152.73-1.883 1.047.73.313 1.359.715 1.883 1.203s.953 1.09 1.285 1.809c.348.695.602 1.527.758 2.488.176.941.262 2.043.262 3.297 0 1.957-.191 3.625-.574 5.004-.367 1.379-.945 2.539-1.73 3.484-.766.922-1.746 1.656-2.934 2.199s-2.59.949-4.215 1.23c-1.605.277-3.437.453-5.496.523l-6.832.129a430.25 430.25 0 0 1-6.992-.051c-2.129-.035-4.066-.176-5.812-.418-1.727-.246-3.254-.629-4.582-1.152-1.324-.543-2.441-1.312-3.352-2.305-.887-.996-1.57-2.262-2.039-3.797-.457-1.539-.684-3.434-.684-5.684h5.027l.105 3.457c.07.961.27 1.781.602 2.461s.863 1.238 1.598 1.676c.734.418 1.781.75 3.141.996 1.379.242 3.117.41 5.211.496l7.777.133 5.891-.027 4.398-.289c1.238-.156 2.27-.402 3.09-.73.836-.332 1.5-.812 1.988-1.441s.836-1.422 1.047-2.383.313-2.141.313-3.535c0-1.469-.102-2.637-.312-3.512-.211-.891-.523-1.57-.941-2.043-.402-.469-.918-.777-1.547-.914s-1.359-.211-2.199-.211h-18.43v-4.191zm34.352 23.203c-3.352 0-6.199-.242-8.535-.73s-4.242-1.328-5.707-2.516-2.531-2.785-3.195-4.793-.996-4.531-.996-7.566c0-3.145.332-5.746.996-7.805s1.727-3.695 3.195-4.898 3.367-2.051 5.707-2.539 5.184-.734 8.535-.734c2.371 0 4.363.121 5.969.367s2.914.551 3.926.914c1.031.367 1.809.77 2.332 1.207.539.418.934.813 1.176 1.18V.875h5.027v40.227h-5.027v-4.48l-1.254 1.496a9.45 9.45 0 0 1-2.437 1.727c-.891.438-2.137.855-3.742 1.258-1.605.383-3.598.574-5.969.574zm0-3.926l4.477-.105c1.309-.086 2.461-.262 3.457-.523s1.832-.648 2.512-1.152c.699-.523 1.266-1.215 1.703-2.07s.75-1.91.941-3.168c.211-1.273.313-2.801.313-4.582 0-1.852-.102-3.422-.312-4.715-.191-1.309-.508-2.402-.941-3.273-.437-.891-1.004-1.59-1.703-2.094-.68-.508-1.52-.891-2.512-1.152-.996-.281-2.148-.457-3.457-.527l-4.477-.102-5.082.184c-1.414.121-2.617.34-3.609.652s-1.809.75-2.437 1.309c-.609.559-1.09 1.277-1.437 2.148-.332.875-.559 1.93-.684 3.168l-.156 4.324.156 4.293c.125 1.203.352 2.242.684 3.117.348.855.828 1.563 1.438 2.121.629.559 1.441.996 2.438 1.309s2.195.531 3.609.656l5.082.184zm35.188-22.996v26.348h-5.027V14.754h-5.027v-3.82h5.027v-.266c0-2.039.227-3.742.68-5.105s1.203-2.453 2.25-3.273 2.43-1.395 4.137-1.727c1.73-.352 3.852-.523 6.363-.523h5.84v4.187h-5.867l-3.977.105c-1.066.07-1.93.305-2.594.707-.645.402-1.109 1.039-1.387 1.91s-.418 2.113-.418 3.719v.266h14.242v3.82zm16.754 11.055c0-3.094.332-5.648.996-7.676s1.727-3.629 3.191-4.816 3.371-2.02 5.711-2.488c2.336-.488 5.184-.734 8.535-.734s6.195.246 8.531.734c2.34.469 4.242 1.301 5.711 2.488s2.527 2.793 3.191 4.816.996 4.582.996 7.676-.332 5.656-.996 7.699-1.727 3.664-3.191 4.871-3.371 2.059-5.711 2.566c-2.336.488-5.184.73-8.531.73s-6.199-.242-8.535-.73c-2.34-.508-4.242-1.363-5.711-2.566s-2.531-2.828-3.191-4.871-.996-4.609-.996-7.699zm5.027 0l.184 4.371c.121 1.238.348 2.305.68 3.195.352.891.828 1.617 1.441 2.176s1.414 1.004 2.406 1.332 2.199.559 3.613.684l5.082.184 4.477-.105c1.324-.086 2.477-.27 3.453-.551.996-.277 1.844-.672 2.539-1.18.699-.523 1.258-1.23 1.676-2.121.438-.891.75-1.98.945-3.273.207-1.309.313-2.879.313-4.711 0-1.801-.105-3.328-.312-4.586-.195-1.273-.508-2.34-.945-3.195-.418-.855-.977-1.527-1.676-2.016-.695-.504-1.543-.883-2.539-1.125-.977-.262-2.129-.43-3.453-.5l-4.477-.102-4.504.102c-1.309.07-2.461.238-3.457.5-.977.242-1.816.621-2.512 1.125-.699.488-1.266 1.16-1.703 2.016-.418.855-.734 1.922-.941 3.195-.191 1.258-.289 2.785-.289 4.586zm65.242 15.293l-12.094-12.625-12.098 12.625h-6.703l15.449-15.348-14.715-14.82h6.703l11.492 11.652 11.23-11.652h6.703L216.52 25.727l15.449 15.375zm0 0" fill="url(#A)"/></svg>
